!!!OTL: An den Most
!!!ARE: Europa, Mitteleuropa, Deutschland
!!!SCT: A0318
!!!YEM: Copyright 1995, estate of Helmut Schaffrath.
**kern
*ICvox
*Ivox
*M4/2
*k[b-]
*F:
{2cc
=1
2a
2f
2cc
2dd
=2
2cc
2b-
2a}
{2g
=3
2.cc
4b-
2a
2g
=4
2cc
2b-
2cc
2a
=5
1g
1r}
=6
{1f
2cc
2dd
=7
2cc
2b-
2a}
{2g
=8
2.cc
4b-
2a
2g
=9
2cc
2b-
2cc
2a}
=10
{1dd
1cc
=11
2a
2f
1g
=12
1f
2r}
==
!!!AGN: Romanze, Ballade, Lied, Trinklied
!! Reutterliedlein (1535) No. 5.
!!!ONB: ESAC (Essen Associative Code) Database: ALTDEU
!!!AMT: simple quadruple
!!!AIN: vox
!!!EED: Helmut Schaffrath
!!!EEV: 1.0
*-
